assets/fa/fa-folder-plus.svg

<svg xmlns="http://www.w3.org/2000/svg" width="100%" height="100%" viewBox="-43.52 -43.52 599.04 599.04"><path d="M464 128H272l-64-64H48a48 48 0 00-48 48v288a48 48 0 0048 48h416a48 48 0 0048-48V176a48 48 0 00-48-48zM359.5 296a16 16 0 01-16 16h-64v64a16 16 0 01-16 16h-16a16 16 0 01-16-16v-64h-64a16 16 0 01-16-16v-16a16 16 0 0116-16h64v-64a16 16 0 0116-16h16a16 16 0 0116 16v64h64a16 16 0 0116 16z"/></svg>

<svg xmlns="http://www.w3.org/2000/svg" width="100%" height="100%" viewBox="-43.52 -43.52 599.04 599.04"><path d="M464,128H272L208,64H48A48,48,0,0,0,0,112V400a48,48,0,0,0,48,48H464a48,48,0,0,0,48-48V176A48,48,0,0,0,464,128ZM359.5,296a16,16,0,0,1-16,16h-64v64a16,16,0,0,1-16,16h-16a16,16,0,0,1-16-16V312h-64a16,16,0,0,1-16-16V280a16,16,0,0,1,16-16h64V200a16,16,0,0,1,16-16h16a16,16,0,0,1,16,16v64h64a16,16,0,0,1,16,16Z"/></svg>
